src/lib/runemarks/svg/factions-chaos-bladeborn-blood-of-the-bull.svg

<!-- Generated by IcoMoon.io -->
<svg version="1.1" xmlns="http://www.w3.org/2000/svg" width="512" height="512" viewBox="0 0 512 512">
<title>Blood of the Bull</title>
<g id="icomoon-ignore">
</g>
<path  d="M255.425 34.39c-1.349 1.498-3.23 3.489-4.183 4.422-2.349 2.307-15.316 11.88-16.093 11.88-0.341 0-1.804 1.609-3.25 3.575-1.446 1.964-3.718 4.282-5.048 5.148s-3.977 2.751-5.879 4.19c-3.917 2.96-8.202 6.064-12.32 8.923-1.543 1.072-3.727 3.216-4.853 4.766-1.127 1.549-3.366 3.775-4.978 4.948-1.613 1.171-4.293 3.114-5.959 4.316-1.665 1.201-4.389 3.168-6.053 4.37-1.665 1.204-4.248 2.968-5.738 3.923-1.492 0.955-3.774 3.267-5.072 5.14-1.298 1.874-3.58 4.186-5.072 5.141s-4.074 2.719-5.738 3.921c-1.666 1.204-4.405 3.112-6.087 4.24-1.684 1.13-3.977 3.366-5.099 4.971-1.121 1.603-3.831 4.278-6.022 5.942l-3.982 3.028-47.886 0.237c-33.828 0.168-48.221-0.041-49.031-0.712-0.884-0.734-1.205-6.228-1.411-24.196-0.273-23.806-0.772-27.245-3.409-23.552-0.65 0.909-1.813 2.011-2.584 2.451-0.77 0.439-3.495 2.618-6.053 4.843-2.559 2.225-6.599 5.684-8.977 7.686-2.379 2.001-5 4.685-5.826 5.962-0.826 1.278-3.063 3.966-4.973 5.973l-3.472 3.65v58.613l2.28 1.792c2.245 1.766 3.017 1.793 51.267 1.793 42.938 0 49.225 0.167 50.911 1.346l1.922 1.346v124.71l-2.153 2.822c-1.243 1.63-3.281 3.070-4.825 3.409-1.472 0.324-4.818 2.334-7.438 4.467s-5.994 4.36-7.498 4.947c-8.645 3.377-13.434 6.073-14.346 8.072-1.064 2.336-1.513 36.259-0.494 37.279 1.236 1.234 8.219 0.313 11.796-1.556 2.073-1.082 5.411-2.464 7.419-3.070 2.007-0.606 5.619-2.547 8.025-4.314 2.407-1.765 6.040-3.712 8.073-4.324s5.228-1.932 7.096-2.935c1.87-1.002 3.965-1.822 4.653-1.822 0.69 0 2.836-0.744 4.77-1.653 5.544-2.608 14.365-6.109 19.083-7.577 2.378-0.738 6.22-2.854 8.54-4.7 2.32-1.848 5.823-3.759 7.786-4.248s4.346-1.338 5.298-1.887c1.62-0.933 3.899-1.824 18.205-7.111 3.117-1.151 7.323-3.451 9.347-5.111 2.025-1.659 5.401-3.48 7.501-4.045 2.1-0.567 5.191-1.738 6.869-2.606 8.887-4.592 15.718-6.486 17.010-4.718 1.302 1.781 1.453 113.721 0.155 115.019-0.649 0.648-10.492-2.972-15.712-5.779-4.49-2.416-7.379-0.44-4.299 2.937 0.986 1.080 2.257 3.421 2.827 5.201 0.569 1.779 1.494 3.531 2.054 3.891 1.694 1.089 8.040 9.913 10.114 14.062 1.070 2.14 2.892 5.060 4.048 6.486 8.852 10.931 11.5 14.623 11.5 16.026 0 0.889 1.849 3.882 4.109 6.654 5.687 6.978 7.675 9.893 9.146 13.416 2.219 5.313 10.058 4.577 10.11-0.95 0.009-0.78 1.375-3.363 3.038-5.741 6.545-9.356 8.947-13.096 10.275-16 0.76-1.664 2.563-4.584 4.005-6.486 2.33-3.077 6.2-8.507 7.945-11.156 0.346-0.524 1.216-2.314 1.933-3.978 0.719-1.666 2.68-4.779 4.36-6.92 1.681-2.14 4.466-6.736 6.188-10.214 3.817-7.704 3.219-9.253-2.502-6.479-2.029 0.983-4.857 2.053-6.284 2.377s-4.062 1.596-5.856 2.826c-2.76 1.895-3.587 2.091-5.376 1.276l-2.114-0.964-0.245-57.762c-0.136-31.938 0.091-58.245 0.51-58.844 1.236-1.77 6.759-1.233 11.105 1.082 2.233 1.19 4.581 2.163 5.215 2.163s2.695 0.808 4.581 1.796c1.884 0.988 5.353 2.389 7.708 3.113 2.356 0.723 5.944 2.676 7.974 4.339 2.031 1.663 6.033 3.752 8.895 4.643s6.086 2.178 7.161 2.86c1.077 0.682 3.32 1.514 4.985 1.851 1.666 0.336 4.195 1.312 5.622 2.168s4.281 2.006 6.341 2.554c2.062 0.548 5.737 2.432 8.169 4.187 4.066 2.936 7.199 4.299 19.219 8.369 2.379 0.805 6.276 2.401 8.662 3.548 2.385 1.147 4.921 2.085 5.635 2.085s2.729 0.767 4.478 1.704c1.749 0.938 4.986 2.16 7.193 2.715 2.459 0.619 5.683 2.438 8.332 4.699 2.529 2.159 5.626 3.933 7.468 4.278 1.731 0.325 4.212 1.139 5.512 1.813s3.358 1.223 4.57 1.223h2.205v-38.503l-2.167-2.337c-1.192-1.287-3.666-2.741-5.498-3.235-1.831-0.494-5.142-2.282-7.358-3.974s-5.483-3.682-7.26-4.421c-1.777-0.74-3.516-1.788-3.866-2.329-1.2-1.86-0.79-129.232 0.419-130.014 0.596-0.385 21.82-0.894 47.168-1.131 39.702-0.374 46.199-0.612 46.906-1.73 0.474-0.752 0.825-13.976 0.833-31.453l0.012-30.156-3.522-3.522c-1.938-1.938-4.043-4.529-4.68-5.761-3.127-6.048-21.142-19.846-21.229-16.261-0.014 0.604-0.003 11.257 0.026 23.674 0.046 20.143-0.106 22.706-1.405 23.784-1.931 1.602-89.579 1.239-92.529-0.383-5.026-2.765-9.961-6.59-15.152-11.743-3.154-3.132-8.731-7.833-12.393-10.45s-7.114-5.294-7.671-5.952c-3.264-3.856-7.99-8.022-13.853-12.21-9.44-6.742-10.567-7.65-16.072-12.974-5.702-5.515-6.401-6.080-13.863-11.259-7.219-5.008-7.701-5.41-14.651-12.211-3.228-3.158-7.49-6.766-9.474-8.017-4.946-3.122-6.677-4.554-11.858-9.81-5.282-5.357-4.786-5.243-7.869-1.816zM265.328 93.201c1.562 1.355 3.214 2.464 3.67 2.464 0.455 0 2.014 1.654 3.462 3.675 2.5 3.491 11.013 10.79 17.015 14.588 1.524 0.965 3.010 2.502 3.3 3.415 0.45 1.418 8.054 8.317 13.82 12.543 0.951 0.697 3.441 2.64 5.531 4.317s4.469 3.408 5.288 3.845c0.816 0.438 1.974 1.976 2.572 3.422 0.599 1.445 1.341 2.627 1.649 2.627s2.387 1.46 4.623 3.244c2.236 1.784 5.839 4.605 8.007 6.27 2.168 1.665 4.978 4.512 6.243 6.33s3.32 3.831 4.569 4.476c1.248 0.645 4.289 3.071 6.759 5.39l4.49 4.215-0.086 51.416c-0.082 49.042-0.353 56.010-2.151 55.528-2.886-0.771-11.75-4.072-14.683-5.468-1.933-0.921-4.089-1.673-4.791-1.673s-2.815-0.791-4.7-1.759c-1.884-0.966-5.437-2.348-7.896-3.067s-6.291-2.7-8.519-4.401c-2.226-1.7-6.368-3.793-9.202-4.653-2.834-0.858-5.618-1.93-6.184-2.382-0.567-0.451-2.978-1.413-5.356-2.135-2.378-0.723-6.27-2.115-8.649-3.095-2.378-0.978-5.297-1.983-6.485-2.232-1.19-0.249-3.702-1.876-5.583-3.618-7.716-7.141-17.060-7.364-25.351-0.607-2.031 1.655-6.062 3.936-8.96 5.072s-5.714 2.411-6.255 2.832c-0.543 0.422-2.928 1.243-5.3 1.821-2.373 0.58-4.782 1.443-5.354 1.918-0.573 0.476-3.422 1.585-6.331 2.466-2.908 0.88-6.919 2.93-8.915 4.557-1.996 1.625-5.964 3.764-8.817 4.753-11.273 3.906-15.712 5.576-19.084 7.18-1.934 0.921-4.002 1.673-4.595 1.673s-3.208 1.009-5.814 2.24c-7.806 3.694-7.266 7.527-7.266-51.339v-51.482l4.974-4.621c2.734-2.542 5.654-4.845 6.487-5.119 0.833-0.274 1.513-0.851 1.513-1.282 0-0.43 1.13-1.369 2.511-2.082 1.381-0.715 3.321-2.609 4.313-4.213 1.656-2.68 11.361-11.268 16.645-14.731 1.223-0.801 2.952-2.811 3.844-4.467 0.893-1.656 1.833-3.011 2.089-3.011 0.258 0 2.246-1.46 4.418-3.244 2.174-1.784 5.249-4.215 6.833-5.405 6.542-4.906 10.058-8.065 12.103-10.874 1.929-2.65 5.097-5.45 13.359-11.813 1.4-1.079 3.542-3.043 4.757-4.363 12.383-13.466 15.145-14.642 21.482-9.144z"></path>
</svg>

<?xml version="1.0" encoding="UTF-8" standalone="no"?>
<!DOCTYPE svg PUBLIC "-//W3C//DTD SVG 1.1//EN" "http://www.w3.org/Graphics/SVG/1.1/DTD/svg11.dtd">
<svg width="100%" height="100%" viewBox="0 0 512 512" version="1.1" xmlns="http://www.w3.org/2000/svg" xmlns:xlink="http://www.w3.org/1999/xlink" xml:space="preserve" xmlns:serif="http://www.serif.com/" style="fill-rule:evenodd;clip-rule:evenodd;stroke-linejoin:round;stroke-miterlimit:2;">
    <g transform="matrix(1.04225,0,0,1.04225,-10.8154,-10.813)">
        <path d="M255.425,34.39C254.076,35.888 252.195,37.879 251.242,38.812C248.893,41.119 235.926,50.692 235.149,50.692C234.808,50.692 233.345,52.301 231.899,54.267C230.453,56.231 228.181,58.549 226.851,59.415C225.521,60.281 222.874,62.166 220.972,63.605C217.055,66.565 212.77,69.669 208.652,72.528C207.109,73.6 204.925,75.744 203.799,77.294C202.672,78.843 200.433,81.069 198.821,82.242C197.208,83.413 194.528,85.356 192.862,86.558C191.197,87.759 188.473,89.726 186.809,90.928C185.144,92.132 182.561,93.896 181.071,94.851C179.579,95.806 177.297,98.118 175.999,99.991C174.701,101.865 172.419,104.177 170.927,105.132C169.435,106.087 166.853,107.851 165.189,109.053C163.523,110.257 160.784,112.165 159.102,113.293C157.418,114.423 155.125,116.659 154.003,118.264C152.882,119.867 150.172,122.542 147.981,124.206L143.999,127.234L96.113,127.471C62.285,127.639 47.892,127.43 47.082,126.759C46.198,126.025 45.877,120.531 45.671,102.563C45.398,78.757 44.899,75.318 42.262,79.011C41.612,79.92 40.449,81.022 39.678,81.462C38.908,81.901 36.183,84.08 33.625,86.305C31.066,88.53 27.026,91.989 24.648,93.991C22.269,95.992 19.648,98.676 18.822,99.953C17.996,101.231 15.759,103.919 13.849,105.926L10.377,109.576L10.377,168.189L12.657,169.981C14.902,171.747 15.674,171.774 63.924,171.774C106.862,171.774 113.149,171.941 114.835,173.12L116.757,174.466L116.757,299.176L114.604,301.998C113.361,303.628 111.323,305.068 109.779,305.407C108.307,305.731 104.961,307.741 102.341,309.874C99.721,312.007 96.347,314.234 94.843,314.821C86.198,318.198 81.409,320.894 80.497,322.893C79.433,325.229 78.984,359.152 80.003,360.172C81.239,361.406 88.222,360.485 91.799,358.616C93.872,357.534 97.21,356.152 99.218,355.546C101.225,354.94 104.837,352.999 107.243,351.232C109.65,349.467 113.283,347.52 115.316,346.908C117.349,346.296 120.544,344.976 122.412,343.973C124.282,342.971 126.377,342.151 127.065,342.151C127.755,342.151 129.901,341.407 131.835,340.498C137.379,337.89 146.2,334.389 150.918,332.921C153.296,332.183 157.138,330.067 159.458,328.221C161.778,326.373 165.281,324.462 167.244,323.973C169.207,323.484 171.59,322.635 172.542,322.086C174.162,321.153 176.441,320.262 190.747,314.975C193.864,313.824 198.07,311.524 200.094,309.864C202.119,308.205 205.495,306.384 207.595,305.819C209.695,305.252 212.786,304.081 214.464,303.213C223.351,298.621 230.182,296.727 231.474,298.495C232.776,300.276 232.927,412.216 231.629,413.514C230.98,414.162 221.137,410.542 215.917,407.735C211.427,405.319 208.538,407.295 211.618,410.672C212.604,411.752 213.875,414.093 214.445,415.873C215.014,417.652 215.939,419.404 216.499,419.764C218.193,420.853 224.539,429.677 226.613,433.826C227.683,435.966 229.505,438.886 230.661,440.312C239.513,451.243 242.161,454.935 242.161,456.338C242.161,457.227 244.01,460.22 246.27,462.992C251.957,469.97 253.945,472.885 255.416,476.408C257.635,481.721 265.474,480.985 265.526,475.458C265.535,474.678 266.901,472.095 268.564,469.717C275.109,460.361 277.511,456.621 278.839,453.717C279.599,452.053 281.402,449.133 282.844,447.231C285.174,444.154 289.044,438.724 290.789,436.075C291.135,435.551 292.005,433.761 292.722,432.097C293.441,430.431 295.402,427.318 297.082,425.177C298.763,423.037 301.548,418.441 303.27,414.963C307.087,407.259 306.489,405.71 300.768,408.484C298.739,409.467 295.911,410.537 294.484,410.861C293.057,411.185 290.422,412.457 288.628,413.687C285.868,415.582 285.041,415.778 283.252,414.963L281.138,413.999L280.893,356.237C280.757,324.299 280.984,297.992 281.403,297.393C282.639,295.623 288.162,296.16 292.508,298.475C294.741,299.665 297.089,300.638 297.723,300.638C298.357,300.638 300.418,301.446 302.304,302.434C304.188,303.422 307.657,304.823 310.012,305.547C312.368,306.27 315.956,308.223 317.986,309.886C320.017,311.549 324.019,313.638 326.881,314.529C329.743,315.42 332.967,316.707 334.042,317.389C335.119,318.071 337.362,318.903 339.027,319.24C340.693,319.576 343.222,320.552 344.649,321.408C346.076,322.264 348.93,323.414 350.99,323.962C353.052,324.51 356.727,326.394 359.159,328.149C363.225,331.085 366.358,332.448 378.378,336.518C380.757,337.323 384.654,338.919 387.04,340.066C389.425,341.213 391.961,342.151 392.675,342.151C393.389,342.151 395.404,342.918 397.153,343.855C398.902,344.793 402.139,346.015 404.346,346.57C406.805,347.189 410.029,349.008 412.678,351.269C415.207,353.428 418.304,355.202 420.146,355.547C421.877,355.872 424.358,356.686 425.658,357.36C426.958,358.034 429.016,358.583 430.228,358.583L432.433,358.583L432.433,320.08L430.266,317.743C429.074,316.456 426.6,315.002 424.768,314.508C422.937,314.014 419.626,312.226 417.41,310.534C415.194,308.842 411.927,306.852 410.15,306.113C408.373,305.373 406.634,304.325 406.284,303.784C405.084,301.924 405.494,174.552 406.703,173.77C407.299,173.385 428.523,172.876 453.871,172.639C493.573,172.265 500.07,172.027 500.777,170.909C501.251,170.157 501.602,156.933 501.61,139.456L501.622,109.3L498.1,105.778C496.162,103.84 494.057,101.249 493.42,100.017C490.293,93.969 472.278,80.171 472.191,83.756C472.177,84.36 472.188,95.013 472.217,107.43C472.263,127.573 472.111,130.136 470.812,131.214C468.881,132.816 381.233,132.453 378.283,130.831C373.257,128.066 368.322,124.241 363.131,119.088C359.977,115.956 354.4,111.255 350.738,108.638C347.076,106.021 343.624,103.344 343.067,102.686C339.803,98.83 335.077,94.664 329.214,90.476C319.774,83.734 318.647,82.826 313.142,77.502C307.44,71.987 306.741,71.422 299.279,66.243C292.06,61.235 291.578,60.833 284.628,54.032C281.4,50.874 277.138,47.266 275.154,46.015C270.208,42.893 268.477,41.461 263.296,36.205C258.014,30.848 258.51,30.962 255.427,34.389L255.425,34.39ZM265.328,93.201C266.89,94.556 268.542,95.665 268.998,95.665C269.453,95.665 271.012,97.319 272.46,99.34C274.96,102.831 283.473,110.13 289.475,113.928C290.999,114.893 292.485,116.43 292.775,117.343C293.225,118.761 300.829,125.66 306.595,129.886C307.546,130.583 310.036,132.526 312.126,134.203C314.216,135.88 316.595,137.611 317.414,138.048C318.23,138.486 319.388,140.024 319.986,141.47C320.585,142.915 321.327,144.097 321.635,144.097C321.943,144.097 324.022,145.557 326.258,147.341C328.494,149.125 332.097,151.946 334.265,153.611C336.433,155.276 339.243,158.123 340.508,159.941C341.773,161.759 343.828,163.772 345.077,164.417C346.325,165.062 349.366,167.488 351.836,169.807L356.326,174.022L356.24,225.438C356.158,274.48 355.887,281.448 354.089,280.966C351.203,280.195 342.339,276.894 339.406,275.498C337.473,274.577 335.317,273.825 334.615,273.825C333.913,273.825 331.8,273.034 329.915,272.066C328.031,271.1 324.478,269.718 322.019,268.999C319.56,268.28 315.728,266.299 313.5,264.598C311.274,262.898 307.132,260.805 304.298,259.945C301.464,259.087 298.68,258.015 298.114,257.563C297.547,257.112 295.136,256.15 292.758,255.428C290.38,254.705 286.488,253.313 284.109,252.333C281.731,251.355 278.812,250.35 277.624,250.101C276.434,249.852 273.922,248.225 272.041,246.483C264.325,239.342 254.981,239.119 246.69,245.876C244.659,247.531 240.628,249.812 237.73,250.948C234.832,252.084 232.016,253.359 231.475,253.78C230.932,254.202 228.547,255.023 226.175,255.601C223.802,256.181 221.393,257.044 220.821,257.519C220.248,257.995 217.399,259.104 214.49,259.985C211.582,260.865 207.571,262.915 205.575,264.542C203.579,266.167 199.611,268.306 196.758,269.295C185.485,273.201 181.046,274.871 177.674,276.475C175.74,277.396 173.672,278.148 173.079,278.148C172.486,278.148 169.871,279.157 167.265,280.388C159.459,284.082 159.999,287.915 159.999,229.049L159.999,177.567L164.973,172.946C167.707,170.404 170.627,168.101 171.46,167.827C172.293,167.553 172.973,166.976 172.973,166.545C172.973,166.115 174.103,165.176 175.484,164.463C176.865,163.748 178.805,161.854 179.797,160.25C181.453,157.57 191.158,148.982 196.442,145.519C197.665,144.718 199.394,142.708 200.286,141.052C201.179,139.396 202.119,138.041 202.375,138.041C202.633,138.041 204.621,136.581 206.793,134.797C208.967,133.013 212.042,130.582 213.626,129.392C220.168,124.486 223.684,121.327 225.729,118.518C227.658,115.868 230.826,113.068 239.088,106.705C240.488,105.626 242.63,103.662 243.845,102.342C256.228,88.876 258.99,87.7 265.327,93.198L265.328,93.201Z" style="fill-rule:nonzero;"/>
    </g>
</svg>
